svgs/sharp-solid/h.svg

<svg xmlns="http://www.w3.org/2000/svg" viewBox="0 0 384 512"><!--! Font Awesome Pro 6.6.0 by @fontawesome - https://fontawesome.com License - https://fontawesome.com/license (Commercial License) Copyright 2024 Fonticons, Inc. --><path d="M320 256l0 192 0 32 64 0 0-32 0-192 0-32 0-32 0-128 0-32-64 0 0 32 0 128L64 192 64 64l0-32L0 32 0 64 0 192l0 64L0 448l0 32 64 0 0-32 0-192 256 0z"/></svg>

<svg xmlns="http://www.w3.org/2000/svg" viewBox="0 0 384 512"><!--! Font Awesome Pro 6.4.0 by @fontawesome - https://fontawesome.com License - https://fontawesome.com/license (Commercial License) Copyright 2023 Fonticons, Inc. --><path d="M320 256l0 192v32l64 0V448l0-192V224 192 64 32H320V64 192L64 192 64 64V32H0V64 192v64V448v32H64l0-32 0-192 256 0z"/></svg>
